build/payment/PayPalL.svg

<svg xmlns="http://www.w3.org/2000/svg" fill="none" viewBox="0 0 40 40" focusable="false"><path fill="none" d="M0 0H40V40H0z"/><path fill="none" d="M6 10H34V30H6z"/><rect width="28" height="20" x="6" y="10" fill="#F5F5F6" rx="2"/><path fill="#252629" fill-rule="evenodd" d="M13.607 17.0394C13.8343 16.7642 13.9877 16.3815 13.9455 16C13.6181 16.0131 13.2219 16.2182 12.9868 16.4935C12.7764 16.7367 12.5918 17.1264 12.6418 17.5001C13.0069 17.5284 13.3798 17.3143 13.607 17.0394ZM20.1192 16.9548Q19.679 16.8136 19.1007 16.8136L17.3226 16.8136L17.3226 22.9908L18.5483 22.9908L18.5483 20.7847L19.1007 20.7847Q20.3264 20.7847 20.8788 20.2728Q20.9602 20.1974 21.0296 20.1122Q21.4312 19.6193 21.4312 18.7991Q21.4312 18.3491 21.2845 17.9873C21.1866 17.7402 21.0399 17.5313 20.8443 17.3607Q20.5594 17.096 20.1192 16.9548ZM15.1263 18.2218C15.067 18.2581 14.4188 18.654 14.4261 19.4583C14.4351 20.4431 15.2899 20.7709 15.2998 20.775C15.2924 20.7984 15.1628 21.2422 14.8494 21.7008C14.5778 22.0971 14.2964 22.4921 13.853 22.5007C13.64 22.5045 13.4976 22.4429 13.3496 22.3788C13.1946 22.3117 13.0334 22.2419 12.7787 22.2419C12.2807 22.2419 12.1248 22.4921 11.7122 22.5085C11.2839 22.5249 10.9582 22.0799 10.6846 21.6848C10.1259 20.8767 9.69846 19.4012 10.2723 18.4057C10.557 17.911 11.0661 17.598 11.619 17.5898C11.8573 17.5851 12.0881 17.6766 12.2901 17.7568C12.4443 17.8179 12.5818 17.8724 12.6929 17.8724C12.7927 17.8724 12.9265 17.8197 13.0825 17.7582C13.3281 17.6614 13.6289 17.5428 13.9387 17.5742C14.1512 17.5832 14.7468 17.6599 15.1296 18.2198C15.1288 18.2203 15.1277 18.221 15.1263 18.2218ZM19.888 19.5498Q19.6292 19.814 19.1007 19.814L18.5483 19.814L18.5483 17.7843L19.1007 17.7843Q19.6292 17.7843 19.888 18.0485Q20.1365 18.3021 20.1365 18.7991Q20.1365 19.2962 19.888 19.5498ZM21.9136 18.6491C22.184 18.5373 22.4487 18.4609 22.7077 18.4197Q23.0961 18.3491 23.5536 18.3491Q24.2355 18.3491 24.6239 18.5256C24.8886 18.6432 25.0871 18.7903 25.2194 18.9668C25.3518 19.1433 25.4352 19.3345 25.4698 19.5404Q25.5302 19.8493 25.5302 20.1052L25.5302 22.9908L24.3822 22.9908L24.3822 22.3201L24.3649 22.3201C24.3419 22.3672 24.3016 22.4348 24.2441 22.5231C24.1865 22.6054 24.1031 22.6878 23.9938 22.7702C23.8844 22.8466 23.7463 22.9143 23.5795 22.9731C23.4126 23.032 23.2083 23.0614 22.9666 23.0614Q22.5437 23.0614 22.2416 22.9467Q21.9395 22.8231 21.7496 22.629C21.623 22.4995 21.528 22.3525 21.4647 22.1877Q21.4052 22.0113 21.3867 21.8306L21.3867 21.8305Q21.3784 21.7492 21.3784 21.6671C21.3784 21.5083 21.4043 21.3406 21.4561 21.1641C21.5079 20.9876 21.6143 20.8258 21.7755 20.6788C21.9366 20.5258 22.161 20.4023 22.4487 20.3081Q22.8803 20.1581 23.5967 20.1581L23.5967 20.1581Q23.7607 20.1581 23.9247 20.1669L24.3563 20.1669L24.3563 19.9728C24.3563 19.8493 24.3275 19.7375 24.27 19.6375C24.2182 19.5375 24.1463 19.4551 24.0542 19.3904C23.9621 19.3257 23.8528 19.2757 23.7262 19.2404C23.6053 19.2051 23.4788 19.1874 23.3464 19.1874C23.1508 19.1874 22.9378 19.2139 22.7077 19.2668C22.4775 19.3139 22.2128 19.4227 21.9136 19.5933L21.9136 18.6491ZM26.5709 24.9057C26.6917 24.9351 26.8068 24.9498 26.9162 24.9498C27.2269 24.9498 27.4858 24.9086 27.693 24.8263C27.9002 24.7439 28.0699 24.6351 28.2023 24.4998C28.3346 24.3703 28.4411 24.2203 28.5216 24.0497C28.6079 23.885 28.6828 23.7173 28.746 23.5467L30.6364 18.4197L29.4452 18.4197L28.6338 20.9082L28.3576 21.8171L28.3145 21.8171L28.0642 20.9435L27.2269 18.4197L25.9322 18.4197L27.693 23.2467L27.5894 23.5114C27.5089 23.7114 27.4024 23.8468 27.2701 23.9174C27.1435 23.9879 26.9795 24.0232 26.7781 24.0232C26.6457 24.0232 26.5392 24.0085 26.4587 23.9791C26.3781 23.9556 26.3033 23.9291 26.2343 23.8997L26.2343 24.8175C26.3378 24.8528 26.4501 24.8822 26.5709 24.9057ZM24.1578 20.917C23.9966 20.917 23.8211 20.9229 23.6312 20.9347C23.4471 20.9406 23.2745 20.967 23.1133 21.0141C22.958 21.0612 22.8285 21.1347 22.7249 21.2347C22.6213 21.3347 22.5696 21.4759 22.5696 21.6583C22.5696 21.823 22.6242 21.9642 22.7336 22.0819C22.8429 22.1936 23.027 22.2495 23.286 22.2495Q23.4672 22.2495 23.6571 22.1966C23.7837 22.1613 23.8988 22.0995 24.0024 22.0113C24.106 21.923 24.1894 21.7995 24.2527 21.6406Q24.3563 21.4024 24.3563 21.0317L24.3563 20.917L24.1578 20.917Z"/></svg>

<svg xmlns="http://www.w3.org/2000/svg" fill="none" viewBox="0 0 40 40" focusable="false"><path fill="none" d="M0 0h40v40H0z"/><path fill="none" d="M6 10h28v20H6z"/><rect width="28" height="20" x="6" y="10" fill="#F0F2F5" rx="2"/><path fill="#23262D" fill-rule="evenodd" d="M13.6 17.03c.23-.27.38-.65.34-1.03-.33.01-.72.21-.96.49-.21.24-.39.63-.34 1.01.36.02.73-.19.96-.47m6.51-.08q-.44-.14-1.01-.14h-1.78v6.18h1.22v-2.21h.56q1.22 0 1.77-.51c.37-.34.56-.83.56-1.48q0-.45-.15-.81c-.1-.24-.25-.45-.44-.62q-.29-.27-.73-.41m-5.69 2.5c-.01-.8.64-1.2.7-1.23v-.01c-.38-.56-.97-.63-1.19-.64-.31-.03-.61.09-.85.18-.16.06-.29.12-.39.12-.11 0-.25-.06-.4-.12-.21-.08-.44-.17-.68-.17-.55.01-1.06.33-1.34.82-.58 1-.15 2.47.41 3.28.27.39.6.84 1.03.82.41-.01.57-.26 1.06-.26.26 0 .42.07.57.13.15.07.3.13.51.13.44-.01.72-.41.99-.8.32-.46.45-.91.45-.93-.01 0-.86-.33-.87-1.32m5.46.09q-.26.27-.78.27h-.56v-2.03h.56q.52 0 .78.26.25.26.25.75 0 .5-.25.75m2.03-.9c.27-.11.53-.18.79-.23.26-.04.54-.07.85-.07q.68 0 1.07.18c.26.12.46.27.59.44.14.18.22.37.25.58.05.2.07.39.07.56v2.89h-1.15v-.67h-.02c-.02.04-.06.11-.12.2-.06.08-.14.16-.25.25-.11.07-.25.14-.42.2-.16.06-.37.09-.61.09q-.42 0-.72-.12c-.2-.08-.37-.19-.5-.32-.12-.13-.22-.27-.28-.44q-.06-.17-.08-.35-.01-.09-.01-.17c0-.16.03-.32.08-.5s.16-.34.32-.49.39-.27.67-.37q.44-.15 1.15-.15.17 0 .33.01h.43v-.19c0-.13-.03-.24-.08-.34a.7.7 0 0 0-.22-.24.8.8 0 0 0-.33-.15c-.12-.04-.25-.06-.38-.06-.19 0-.41.03-.64.08s-.49.16-.79.33zm4.66 6.26c.12.03.23.04.34.04q.465 0 .78-.12c.21-.08.37-.19.51-.33.13-.12.24-.27.32-.45.08-.16.16-.33.22-.5l1.89-5.13h-1.19l-.81 2.49-.28.91h-.04l-.25-.87-.84-2.53h-1.29l1.76 4.83-.11.27c-.08.2-.18.33-.31.4s-.3.11-.5.11c-.13 0-.24-.02-.32-.05-.08-.02-.15-.05-.22-.08v.92c.1.04.22.07.34.09m-2.42-3.99c-.16 0-.33.01-.52.02s-.36.03-.52.08-.29.12-.39.22-.16.24-.16.42c0 .17.06.31.17.43.11.11.29.16.55.16.12 0 .25-.01.37-.05.13-.03.24-.1.35-.18.1-.09.18-.22.25-.37.07-.16.1-.37.1-.61v-.12z"/></svg>
